dist/assets/img/svg/ad-01.svg

<svg width="32" height="32" viewBox="0 0 32 32" fill="none" xmlns="http://www.w3.org/2000/svg">
<g id="vuesax/outline/setting-2">
<g id="setting-2">
<path id="Vector" d="M16 21C13.24 21 11 18.76 11 16C11 13.24 13.24 11 16 11C18.76 11 21 13.24 21 16C21 18.76 18.76 21 16 21ZM16 13C14.3467 13 13 14.3467 13 16C13 17.6533 14.3467 19 16 19C17.6533 19 19 17.6533 19 16C19 14.3467 17.6533 13 16 13Z" fill="#5A5A5A"/>
<path id="Vector_2" d="M20.2803 29.5869C20.0003 29.5869 19.7203 29.5469 19.4403 29.4802C18.6137 29.2536 17.9203 28.7336 17.4803 28.0002L17.3203 27.7336C16.5337 26.3736 15.4537 26.3736 14.667 27.7336L14.5203 27.9869C14.0803 28.7336 13.387 29.2669 12.5603 29.4802C11.7203 29.7069 10.8537 29.5869 10.1203 29.1469L7.82699 27.8269C7.01366 27.3602 6.42699 26.6002 6.17366 25.6802C5.93366 24.7602 6.05366 23.8136 6.52033 23.0002C6.90699 22.3202 7.01366 21.7069 6.78699 21.3202C6.56033 20.9336 5.98699 20.7069 5.20033 20.7069C3.25366 20.7069 1.66699 19.1202 1.66699 17.1736V14.8269C1.66699 12.8802 3.25366 11.2936 5.20033 11.2936C5.98699 11.2936 6.56033 11.0669 6.78699 10.6802C7.01366 10.2936 6.92033 9.68022 6.52033 9.00022C6.05366 8.18689 5.93366 7.22689 6.17366 6.32022C6.41366 5.40022 7.00033 4.64022 7.82699 4.17355L10.1337 2.85355C11.6403 1.96022 13.627 2.48022 14.5337 4.01355L14.6937 4.28022C15.4803 5.64022 16.5603 5.64022 17.347 4.28022L17.4937 4.02689C18.4003 2.48022 20.387 1.96022 21.907 2.86689L24.2003 4.18689C25.0137 4.65355 25.6003 5.41355 25.8537 6.33355C26.0937 7.25355 25.9737 8.20022 25.507 9.01355C25.1203 9.69355 25.0137 10.3069 25.2403 10.6936C25.467 11.0802 26.0403 11.3069 26.827 11.3069C28.7737 11.3069 30.3603 12.8936 30.3603 14.8402V17.1869C30.3603 19.1336 28.7737 20.7202 26.827 20.7202C26.0403 20.7202 25.467 20.9469 25.2403 21.3336C25.0137 21.7202 25.107 22.3336 25.507 23.0136C25.9737 23.8269 26.107 24.7869 25.8537 25.6936C25.6137 26.6136 25.027 27.3736 24.2003 27.8402L21.8937 29.1602C21.387 29.4402 20.8403 29.5869 20.2803 29.5869ZM16.0003 24.6536C17.187 24.6536 18.2937 25.4002 19.0537 26.7202L19.2003 26.9736C19.3603 27.2536 19.627 27.4536 19.947 27.5336C20.267 27.6136 20.587 27.5736 20.8537 27.4136L23.1603 26.0802C23.507 25.8802 23.7737 25.5469 23.8803 25.1469C23.987 24.7469 23.9337 24.3336 23.7337 23.9869C22.9737 22.6802 22.8803 21.3336 23.467 20.3069C24.0537 19.2802 25.267 18.6936 26.787 18.6936C27.6403 18.6936 28.3203 18.0136 28.3203 17.1602V14.8136C28.3203 13.9736 27.6403 13.2802 26.787 13.2802C25.267 13.2802 24.0537 12.6936 23.467 11.6669C22.8803 10.6402 22.9737 9.29355 23.7337 7.98689C23.9337 7.64022 23.987 7.22689 23.8803 6.82689C23.7737 6.42689 23.5203 6.10689 23.1737 5.89355L20.867 4.57355C20.2937 4.22689 19.5337 4.42689 19.187 5.01355L19.0403 5.26689C18.2803 6.58689 17.1737 7.33355 15.987 7.33355C14.8003 7.33355 13.6937 6.58689 12.9337 5.26689L12.787 5.00022C12.4537 4.44022 11.707 4.24022 11.1337 4.57355L8.82699 5.90689C8.48033 6.10689 8.21366 6.44022 8.10699 6.84022C8.00033 7.24022 8.05366 7.65355 8.25366 8.00022C9.01366 9.30689 9.10699 10.6536 8.52033 11.6802C7.93366 12.7069 6.72033 13.2936 5.20033 13.2936C4.34699 13.2936 3.66699 13.9736 3.66699 14.8269V17.1736C3.66699 18.0136 4.34699 18.7069 5.20033 18.7069C6.72033 18.7069 7.93366 19.2936 8.52033 20.3202C9.10699 21.3469 9.01366 22.6936 8.25366 24.0002C8.05366 24.3469 8.00033 24.7602 8.10699 25.1602C8.21366 25.5602 8.46699 25.8802 8.81366 26.0936L11.1203 27.4136C11.4003 27.5869 11.7337 27.6269 12.0403 27.5469C12.3603 27.4669 12.627 27.2536 12.8003 26.9736L12.947 26.7202C13.707 25.4136 14.8137 24.6536 16.0003 24.6536Z" fill="#5A5A5A"/>
</g>
</g>
</svg>

<svg width="32" height="32" fill="none" xmlns="http://www.w3.org/2000/svg"><g fill="#5A5A5A"><path d="M16 21c-2.76 0-5-2.24-5-5s2.24-5 5-5 5 2.24 5 5-2.24 5-5 5zm0-8c-1.653 0-3 1.347-3 3s1.347 3 3 3 3-1.347 3-3-1.347-3-3-3z"/><path d="M20.28 29.587c-.28 0-.56-.04-.84-.107A3.274 3.274 0 0117.48 28l-.16-.266c-.786-1.36-1.866-1.36-2.653 0l-.147.253a3.196 3.196 0 01-1.96 1.493 3.121 3.121 0 01-2.44-.333l-2.293-1.32A3.54 3.54 0 016.52 23c.387-.68.494-1.293.267-1.68-.227-.386-.8-.613-1.587-.613a3.54 3.54 0 01-3.533-3.533v-2.347A3.54 3.54 0 015.2 11.294c.787 0 1.36-.227 1.587-.614.227-.386.133-1-.267-1.68a3.549 3.549 0 01-.346-2.68 3.44 3.44 0 011.653-2.146l2.307-1.32c1.506-.894 3.493-.374 4.4 1.16l.16.266c.786 1.36 1.866 1.36 2.653 0l.147-.253c.906-1.547 2.893-2.067 4.413-1.16l2.293 1.32a3.54 3.54 0 011.307 4.827c-.387.68-.493 1.293-.267 1.68.227.386.8.613 1.587.613a3.54 3.54 0 013.533 3.533v2.347a3.54 3.54 0 01-3.533 3.533c-.787 0-1.36.227-1.587.614-.226.386-.133 1 .267 1.68.467.813.6 1.773.347 2.68A3.44 3.44 0 0124.2 27.84l-2.306 1.32a3.318 3.318 0 01-1.614.427zM16 24.654c1.187 0 2.294.746 3.054 2.066l.146.254c.16.28.427.48.747.56.32.08.64.04.907-.12l2.306-1.334a1.542 1.542 0 00.574-2.093c-.76-1.307-.854-2.653-.267-3.68.587-1.027 1.8-1.613 3.32-1.613.853 0 1.533-.68 1.533-1.534v-2.346c0-.84-.68-1.534-1.533-1.534-1.52 0-2.733-.586-3.32-1.613-.587-1.027-.493-2.373.267-3.68.2-.347.253-.76.146-1.16a1.56 1.56 0 00-.706-.933l-2.307-1.32c-.573-.347-1.333-.147-1.68.44l-.147.253c-.76 1.32-1.866 2.067-3.053 2.067-1.187 0-2.293-.747-3.053-2.067L12.787 5a1.224 1.224 0 00-1.653-.426L8.827 5.907A1.542 1.542 0 008.254 8c.76 1.307.853 2.654.266 3.68-.586 1.027-1.8 1.614-3.32 1.614-.853 0-1.533.68-1.533 1.533v2.347c0 .84.68 1.533 1.533 1.533 1.52 0 2.734.587 3.32 1.613.587 1.027.494 2.374-.266 3.68-.2.347-.254.76-.147 1.16.107.4.36.72.707.934l2.306 1.32c.28.173.614.213.92.133.32-.08.587-.293.76-.573l.147-.254c.76-1.306 1.867-2.066 3.053-2.066z"/></g></svg>9ZM16.0003 24.6536C17.187 24.6536 18.2937 25.4002 19.0537 26.7202L19.2003 26.9736C19.3603 27.2536 19.627 27.4536 19.947 27.5336C20.267 27.6136 20.587 27.5736 20.8537 27.4136L23.1603 26.0802C23.507 25.8802 23.7737 25.5469 23.8803 25.1469C23.987 24.7469 23.9337 24.3336 23.7337 23.9869C22.9737 22.6802 22.8803 21.3336 23.467 20.3069C24.0537 19.2802 25.267 18.6936 26.787 18.6936C27.6403 18.6936 28.3203 18.0136 28.3203 17.1602V14.8136C28.3203 13.9736 27.6403 13.2802 26.787 13.2802C25.267 13.2802 24.0537 12.6936 23.467 11.6669C22.8803 10.6402 22.9737 9.29355 23.7337 7.98689C23.9337 7.64022 23.987 7.22689 23.8803 6.82689C23.7737 6.42689 23.5203 6.10689 23.1737 5.89355L20.867 4.57355C20.2937 4.22689 19.5337 4.42689 19.187 5.01355L19.0403 5.26689C18.2803 6.58689 17.1737 7.33355 15.987 7.33355C14.8003 7.33355 13.6937 6.58689 12.9337 5.26689L12.787 5.00022C12.4537 4.44022 11.707 4.24022 11.1337 4.57355L8.82699 5.90689C8.48033 6.10689 8.21366 6.44022 8.10699 6.84022C8.00033 7.24022 8.05366 7.65355 8.25366 8.00022C9.01366 9.30689 9.10699 10.6536 8.52033 11.6802C7.93366 12.7069 6.72033 13.2936 5.20033 13.2936C4.34699 13.2936 3.66699 13.9736 3.66699 14.8269V17.1736C3.66699 18.0136 4.34699 18.7069 5.20033 18.7069C6.72033 18.7069 7.93366 19.2936 8.52033 20.3202C9.10699 21.3469 9.01366 22.6936 8.25366 24.0002C8.05366 24.3469 8.00033 24.7602 8.10699 25.1602C8.21366 25.5602 8.46699 25.8802 8.81366 26.0936L11.1203 27.4136C11.4003 27.5869 11.7337 27.6269 12.0403 27.5469C12.3603 27.4669 12.627 27.2536 12.8003 26.9736L12.947 26.7202C13.707 25.4136 14.8137 24.6536 16.0003 24.6536Z" fill="#5A5A5A"/>
</g>
</g>
</svg>
